X:1
T:Dieva Jērs
T:R. Jermaks
T:Dieva Jērs
T:Gods Dievam
C:R. Jermaks
%%score { ( 1 2 ) | ( 3 4 ) } { ( 5 8 ) | ( 6 7 ) }
L:1/8
Q:1/4=80
M:2/4
K:G
V:1 treble nm="P1"
V:2 treble 
V:3 bass 
V:4 bass 
V:5 treble nm="P3"
V:8 treble 
V:6 bass 
V:7 bass 
V:1
!mp!"^Andante" D4 |!<(! GA B!<)!G |!>(! E2!>)! D2 | E4 |!<(! AB c!<)!A |!>(! F2!>)!!mf! E2 | %6
w: ||||||
w: Kungs,|ap- žē- lo- jies|par mums,|Kungs,|ap- žē- lo- jies|par mums,|
w: ||||||
w: ||||||
w: ||||||
w: ||||||
!<(! F4 | AB c!<)!e | d2 B2 |!f! d3 B | BA GA | F2 E2 |!>(! A3 F | ED EF | E2!>)! D2 |!mp! D4 | %16
w: ||||||||||
w: Kungs,|ap- žē- lo- jies|par mums.|Kris- tu,|ap- žē- lo- jies|par mums,|Kris- tu,|ap- žē- lo- jies|par mums.|Kungs,|
w: ||||||||||
w: ||||||||||
w: ||||||||||
w: ||||||||||
!<(! GA B!<)!G |!>(! E2!>)! D2 | E4 |!<(! AB c!<)!A |!>(! F2!>)! E2 |!mf!!<(! F4 | AB c!<)!e | %23
w: |||||||
w: ap- žē- lo- jies|par mums,|Kungs,|ap- žē- lo- jies|par mums,|Kungs,|ap- žē- lo- jies|
w: |||||||
w: |||||||
w: |||||||
w: |||||||
 d2 B2 | BA GA |"^rit.""^rit." (E2 !fermata!A2) |!>(! G4-!>)! | G4 |] %28
w: |||||
w: par mums,|ap- žē- lo- jies|par _|mums.|_|
w: |||||
w: |||||
w: |||||
w: |||||
[K:D][M:4/4]!f!"^Enerģiski" A4 F2 D2 | d3 d c2 c2 | (B4 A2) G2 | A4 A4 | G2 G2 A2 B2 | A2 A2 A4 | %34
w: ||||||
w: Gods Die- vam|aug- stu- mos un|miers _ virs|ze- mes|la- bas gri- bas|cil- vē- kiem.|
w: ||||||
w: ||||||
w: ||||||
w: ||||||
!f! A4 F2 D2 | d3 d c4 | B4 A2 G2 | A2 A2 A4 | G4 A2 B2 | A2 A2 A4 | G2 G2 A2 B2 | A4 A2 z2 | z8 | %43
w: |||||||||
w: Mēs Te- vi|sla- vē- jam,|tei- cam un|pie- lū- dzam,|mēs Te- vi|cil- di- nām|un Tev pa- tei-|ca- mies,||
w: |||||||||
w: |||||||||
w: |||||||||
w: |||||||||
 z8 | z8 | z8 | z8 | z8 | z8 |"^rit." z8 ||[M:3/4]!mp!"^Meno mosso" B6 | A4 F2 | D2 D2 E2 | F6 | %54
w: |||||||||||
w: |||||||Dievs,|vien- pie-|dzi- mu- šais|Dēls,|
w: |||||||||||
w: |||||||||||
w: |||||||||||
w: |||||||||||
 (G2 A2) B2 | A4!mp! A2 | B6 | A4 F2 | D4 E2 | F6 | (G2 A2) B2 | A6 | F4 F2 | c2 c2 A2 | B6 | A6 | %66
w: ||||||||||||
w: Jē- * zu|Kris- tu,|Tu|Kungs Dievs,|Die- va|Jērs,|Tē- * va|Dēls,|Tu nes|pa- sau- les|grē-|kus,|
w: ||||||||||||
w: ||||||||||||
w: ||||||||||||
w: ||||||||||||
 B4 G2 | E4 A2 | B6 | c6 |!mf! d4 d2 | c2 B2 A2 | B6 | A6 | G2 A2 B2 | A4 A2 | (G2 A2) B2 | %77
w: |||||||||||
w: ap- žē-|lo- jies|par|mums;|Tu nes|pa- sau- les|grē-|kus,|uz- klau- si|mū- su|lūg- * ša-|
w: |||||||||||
w: |||||||||||
w: |||||||||||
w: |||||||||||
 A4!f! A2 | d2 d2 d2 | (c2 B2) A2 | B4 B2 | A4 A2 | (G2 A2) B2 | A4 A2 | (G2 A2 B2) | A6 || %86
w: |||||||||
w: nu. Tu|sē- di pie|Tē- * va|la- bās|ro- kas,|ap- * žē-|lo- jies|par _ _|mums.|
w: |||||||||
w: |||||||||
w: |||||||||
w: |||||||||
[M:4/4]"^Tempo I" z8 | z8 | z8 | z8 |!f! (A4 F2) D2 | d3 d c4 | B4 A2 G2 | A4 A4 | G4 A2 B2 | %95
w: |||||||||
w: ||||Tu — vis-|aug- stā- kais,|Kungs Jē- zu|Kris- tu,|ar Svē- to|
w: |||||||||
w: |||||||||
w: |||||||||
w: |||||||||
 A4 A4 |!<(! G2 G2 A2!<)! B2 | c3 c c4 |"^rit.""^rit." d8 | !fermata![Fd]8 |] %100
w: |||||
w: Ga- ru:|Die- va Tē- va|go- dī- bā.|A-|men.|
w: |||||
w: |||||
w: |||||
w: |||||
[K:A]!mf!"^11. Es ticu uz  Svēto  Garu, Kungu  un  Atdzīvinā -""^13. Es ticu uz vienu,svētu,katolisku un apustulisku""^3. Dievu      no       Dieva,     gaismu           no""^9. uzkāpis""^1. Es   ticu   uz       vienu       Dievu,  |  visvareno""^5. un   kurš  mūsu   dēļ    un   mūsu      pestīšanas""^7. krustā      sists    par    mums   Poncija    Pilāta""^Rubato, recitando" G16 F2 G2 G2 | %101
w: * de- be- sīs,|
w: * Tē- vu, *|
w: |
w: * * * gais-|
w: * * bā la-|
w: * * kā, lai-|
"^patiesu     Dievu    no     pa     -""^un             neredzamo     lietu""^debesu un zemes, | visu redzamo""^cie                                           -""^sēž            pie         Tēva""^kas            no          Tēva      un""^Es atzīstu vienu kristību grēku""^ir              nā                             -" G16 F2 E2 (F2 F2) G4 || %102
w: * la- bās ro- * kas|
w: |
w: * Ra- dī- tā- * ju.|
w: * tie- sa Die- * va,|
w: * cis no de- be- sīm,|
w: * tis un ap- * be-|
"^14. gaidu           mirušo          augšām              -""^12. kas ar Tēvu un Dēlu tiek līdzīgi pielūgts un""^10. un  atkal  godībā  atnāks  tiesāt  dzīvos    un""^2. Es  ticu  uz   vienu   Kungu   Jēzu   Kristu, |""^8. trešajā          dienā            augšām               -""^6. iemiesojies  caur  Svēto  Garu  no Jaunavas""^4. dzemdinātu,                     ne" c16"^vienpiedzimušo Dieva" B2 c2 c2 | %103
w: * sla- * vēts,|
w: * Dē- lu, *|
w: * ra- dī- tu,|
w: * Ma- ri- jas|
w: * cē- * lies,|
w: * mi- ru- šos|
"^un       viņa      valdīšanai""^un""^un       dzīvi     nākamajā     mū     -""^pirms  visiem  mūžiem   no  Tēva""^būtībā līdzīgu Tēvam,un caur kuru""^kā                    pra                         -""^kas      ir          runā                       -" c16 B2 A2 (B2 B2) c4 |] %104
w: * jis caur pra- vie- šiem.|
w: * * di- dzem- * tu,|
w: * * ir ra- viss dīts,|
w: * ta- pis cil- * vēks,|
w: * vie- tots Rak- * stos,|
w: * ne- būs ga- * la.|
[K:D][M:3/4]!p!"^Andante"[Q:1/4=80][Q:1/4=80] F6 |!<(! E6!<)! | F4 D2 |!>(! E6!>)! |!<(! F4 F2 | %109
w: |||||
w: Svēts,|svēts,|svēts ir|Kungs,|de- bess|
w: |||||
w: |||||
w: |||||
w: |||||
 G4!<)! B2 | A6- |!mf! A6 | d6 | (c2 B2) A2 | B6 |!mp!!>(! A6!>)! | B6 | (A2 G2) F2 | G6 | F4 F2 | %120
w: |||||||||||
w: pul- ku|Dievs.|_|De-|bess * un|ze-|me,|de-|bess * un|ze-|me ir|
w: |||||||||||
w: |||||||||||
w: |||||||||||
w: |||||||||||
!<(! B4 A2 | G2!<)! G2 F2 |!>(! E6!>)! | F4!mf! F2 | B6 |!<(! F4 F2!<)! | c6 | A4!f! !>!A2 | %128
w: ||||||||
w: ta- vas|go- dī- bas|pil-|na. Ho-|san-|na, ho-|san-|na, ho-|
w: ||||||||
w: ||||||||
w: ||||||||
w: ||||||||
 d4 d2 | [Be]4 B2 | c6 || d6 | (c2 B2) A2 | B6 | A4 F2 | E6 | F4 A2 |!f! d4 d2 |!<(! [Be]4 d2!<)! | %139
w: |||||||||||
w: san- na|aug- stu-|mos.|Svē-|tīgs, * kas|nāk|Kun- ga|vār-|dā. Ho-|san- na|aug- stu-|
w: |||||||||||
w: |||||||||||
w: |||||||||||
w: |||||||||||
 d6- | !fermata!d6 |][K:G][M:4/4]!mf!"^Andante"[Q:1/4=80][Q:1/4=80] B4 (A2 B2) | G6 E2 | %143
w: ||||
w: mos.|_|1.\-2. va _|Jērs, kas|
w: ||||
w: ||||
w: ||||
w: ||||
 F4!<(! G2 AA | B4!<)! d4 | d2 B2 B2 A2 |!>(! (B2 G2)!>)! A4 :|!mp! B4 (A2 B2) | G6 E2 | %149
w: ||||||
w: nes pa- sau- les|grē- kus,|ap- žē- lo- jies|par _ mums.|3. va _|Jērs, kas|
w: ||||||
w: ||||||
w: ||||||
w: ||||||
 F4!<(! G2 AA | B4!<)! d4 |!p! c4 B2 G2 |"^rit.""^rit."!>(! A4!>)! !fermata!G4 |] %153
w: ||||
w: nes pa- sau- les|grē- kus:|dā- vā mums|mie- ru.|
w: ||||
w: ||||
w: ||||
w: ||||
V:2
 D4 | B,C DB, | C2 B,2 | C4 | CD EC | D2 C2 | D4 | CD EG | G2 G2 | F3 F | EE EE | D2 C2 | C3 D | %13
 CB, CD | C2 C2 | D4 | B,C DB, | C2 B,2 | C4 | CD EC | D2 C2 | D4 | CD EG | G2 G2 | EE EE | C4 | %26
 B,4- | B,4 |][K:D][M:4/4] A4 F2 D2 | F3 F F2 E2 | D6 D2 | E4 F4 | D2 D2 F2 G2 | E2 E2 F4 | %34
 A4 F2 D2 | F3 F (F2 E2) | D4 D2 D2 | E2 E2 F4 | D4 F2 G2 | E2 E2 F4 | D2 D2 F2 G2 | E4 F2 x2 | %42
 x8 | x8 | x8 | x8 | x8 | x8 | x8 | x8 ||[M:3/4] z6 | z6 | z6 | z6 | z6 | z6 | D6 | C4 C2 | %58
 B,4 C2 | D6 | E4 D2 | C6 | D4 D2 | F2 F2 E2 | F6 | C6 | E4 E2 | C4 C2 | E6 | E6 | F4 F2 | %71
 F2 F2 E2 | (D4 E2) | F6 | D2 D2 D2 | D4 D2 | E4 E2 | E4 A2 | F2 F2 F2 | F4 F2 | D4 E2 | F4 F2 | %82
 D4 D2 | D4 D2 | E6 | E6 ||[M:4/4] x8 | x8 | x8 | x8 | (A4 F2) D2 | F3 F F4 | D4 D2 D2 | E4 F4 | %94
 D4 F2 G2 | E4 F4 | D2 D2 F2 G2 | G3 G G4 | (F4 E4) | x8 |][K:A] E16 ^D2 E2 E2 | %101
 E16 C2 C2 (C2 C2) ^B,4 || C16 E2 E2 E2 | F16 F2 E2 (E2 E2) E4 |][K:D][M:3/4] D6 | B,6 | D4 B,2 | %107
 C6 | D4 D2 | D4 E2 | (F6 | G6) | F6 | F4 F2 | (D4 E2) | F6 | D6 | D4 D2 | (D4 C2) | D4 D2 | %120
 D4 D2 | C2 C2 D2 | C6 | D4 F2 | D6 | D4 D2 | F6 | F4 !>!G2 | F4 F2 | G4 E2 | E6 || D6 | F4 F2 | %133
 (D4 E2) | F4 D2 | (D4!>(! C2) | D4!>)! A2 | F4 F2 | G4 G2 | F6- | F6 |][K:G][M:4/4] D4 C4 | %142
 B,6 B,2 | C4 D2 DD | D4 G4 | D2 D2 E2 E2 | D4 D4 :| D4 C4 | B,6 B,2 | C4 D2 DD | D4 G4 | %151
 E4 D2 D2 | (D2 C2) B,4 |] %153
V:3
!mp! D,4 | G,G, G,G, | G,2 G,2 | G,4 | A,A, A,A, | A,2!mf! G,2 | A,4 | A,A, CC | D2 D2 | %9
w: |||||||||
w: |||||||||
w: |||||||||
w: |||||||||
w: |||||||||
w: |||||||||
w: |||||||||
!f! B,3 B, | CC A,A, | A,2 G,2 | F,3 A, | A,A, A,A, | G,2 F,2 |!mp! D,4 | G,G, G,G, | G,2 G,2 | %18
w: |||||||||
w: |||||||||
w: |||||||||
w: |||||||||
w: |||||||||
w: |||||||||
w: |||||||||
 G,4 | A,A, A,A, | A,2 G,2 |!mf! A,4 | A,A, CC | D2 D2 | CC A,A, | G,2 !fermata!F,2 | G,4- | G,4 |] %28
w: ||||||||||
w: ||||||||||
w: ||||||||||
w: ||||||||||
w: ||||||||||
w: ||||||||||
w: ||||||||||
[K:D][M:4/4]!f! A,4 F,2 D,2 | B,3 B, A,2 A,2 | G,4 A,2 B,2 | C4 D4 | B,2 B,2 D2 D2 | C2 C2 D4 | %34
w: ||||||
w: ||||||
w: ||||||
w: ||||||
w: ||||||
w: ||||||
w: ||||||
!f! A,4 F,2 D,2 | B,3 B, A,4 | G,4 A,2 B,2 | C2 C2 D4 | B,4 D2 D2 | C2 C2 D4 | B,2 B,2 D2 D2 | %41
w: |||||||
w: |||||||
w: |||||||
w: |||||||
w: |||||||
w: |||||||
w: |||||||
 C4 D2!f! A,2 | A,4 F,2 D,2 | D4 C4 | B,4 A,2 G,2 | [F,A,]8 | G,4 A,2 B,2 | A,2 F,2 F,4 | %48
w: |||||||
w: |||||||
w: |||||||
w: |||||||
w: |||||||
w: |||||||
w: * * jo|lie- la ir|Ta- va|go- dī- ba,|Kungs,|de- be- su|Ka- ra- li,|
 G,2 G,G, G,2 A,B, | A,8 ||[M:3/4] z6 | z6 | z6 | z6 | z6 | z6 | z6 | z6 | z6 | z6 | z6 |!mp! z6 | %62
w: ||||||||||||||
w: ||||||||||||||
w: ||||||||||||||
w: ||||||||||||||
w: ||||||||||||||
w: ||||||||||||||
w: Dievs, vi- su- va- re- nais|Tēvs.|||||||||||||
 B,4 B,2 | A,2 A,2 F,2 | D,4 E,2 | F,6 | G,2 A,2 B,2 | A,4 A,2 | G,2 A,2 B,2 |!mf! A,6 | B,4 B,2 | %71
w: |||||||||
w: |||||||||
w: |||||||||
w: |||||||||
w: |||||||||
w: |||||||||
w: |||||||||
 A,2 B,2 C2 | B,6 | D6 | B,2 A,2 G,2 | A,4 A,2 | B,4 B,2 | C4!f! A,2 | B,2 B,2 B,2 | A,2 B,2 C2 | %80
w: |||||||||
w: |||||||||
w: |||||||||
w: |||||||||
w: |||||||||
w: |||||||||
w: |||||||||
 B,4 B,2 | D4 D2 | B,2 A,2 G,2 | A,4 A,2 | B,6 | C6 ||[M:4/4]!f! A,4 F,2 D,2 | D2 DD C4 | %88
w: ||||||||
w: ||||||||
w: ||||||||
w: ||||||||
w: ||||||||
w: ||||||||
w: ||||||Vie- nī- gi|Tu e- si svēts,|
 B,4 A,2 G,2 | A,2 A,A, A,4 | A,4 F,2 D,2 | B,3 B, A,4 | G,4 A,2 B,2 | C4 D4 | B,4 D2 D2 | C4 D4 | %96
w: ||||||||
w: ||||||||
w: ||||||||
w: ||||||||
w: ||||||||
w: ||||||||
w: vie- nī- gi|Tu e- si Kungs.|||||||
 B,2 B,2 D2 D2 | E3 E E4 | D4 B,4 | [A,D]8 |][K:A] B,16 B,2 B,2 B,2 | C16 F,2 G,2 F,2 F,2 G,4 || %102
w: ||||||
w: ||||||
w: ||||||
w: ||||||
w: ||||||
w: ||||||
w: ||||||
 E,16 G,2 A,2 A,2 | A,16 F,2 A,2 G,2 G,2 A,4 |][K:D][M:3/4]!p! A,6 | G,6 | A,4 F,2 | A,6 | %108
w: ||||||
w: ||||||
w: ||||||
w: ||||||
w: ||||||
w: ||||||
w: ||||||
 A,4 A,2 | B,4 B,2 | C6- |!mf! C6 | B,6 | A,2 B,2 C2 | B,4 C2 | D6 | G,6 | A,4 A,2 | B,4 A,2 | %119
w: |||||||||||
w: |||||||||||
w: |||||||||||
w: |||||||||||
w: |||||||||||
w: |||||||||||
w: |||||||||||
 A,4 B,2 | G,4 A,2 | A,2 A,2 A,2 | A,6 | A,4!mf! F,2 | B,6 | B,4 B,2 | C6 | C4!f! !>!C2 | A,4 B,2 | %129
w: ||||||||||
w: ||||||||||
w: ||||||||||
w: ||||||||||
w: ||||||||||
w: ||||||||||
w: ||||||||||
 B,4 G,2 | A,6 || F,6 | A,2 B,2 C2 | B,4 C2 | D4 A,2 | B,4 A,2 | A,4 A,2 | A,4 B,2 | B,4 B,2 | %139
w: ||||||||||
w: ||||||||||
w: ||||||||||
w: ||||||||||
w: ||||||||||
w: ||||||||||
w: ||||||||||
 A,6- | A,6 |][K:G][M:4/4]!mf! G,4 F,4 | E,6 G,2 | A,4 G,2 F,F, | G,4 B,4 | F,2 B,2 G,2 A,2 | %146
w: |||||||
w: |||||||
w: |||||||
w: |||||||
w: |||||||
w: |||||||
w: |||||||
 G,2 B,2 F,4 :|!mp! G,4 F,4 | E,6 G,2 | A,4 G,2 F,F, | G,4 B,4 |!p! G,4 G,2 B,2 | F,4 G,4 |] %153
w: |||||||
w: |||||||
w: |||||||
w: |||||||
w: |||||||
w: |||||||
w: |||||||
V:4
 D,4 | G,,G,, G,,G,, | C,2 G,,2 | C,4 | A,,A,, A,,A,, | D,2 E,2 | D,4 | A,,A,, A,,A,, | B,,2 G,,2 | %9
 B,,3 D, | A,,A,, C,C, | D,2 E,2 | D,3 D, | A,,A,, E,E, | D,2 D,2 | D,4 | G,,G,, G,,G,, | %17
 C,2 G,,2 | C,4 | A,,A,, A,,A,, | D,2 E,2 | D,4 | A,,A,, A,,A,, | B,,2 G,,2 | A,,A,, C,C, | D,4 | %26
 G,,4- | G,,4 |][K:D][M:4/4] A,4 F,2 D,2 | B,,3 D, F,2 F,2 | G,4 A,2 B,2 | A,4 D,4 | %32
 G,2 B,2 A,2 G,2 | A,2 A,2 D,4 | A,4 F,2 D,2 | B,,3 D, F,4 | G,4 A,2 B,2 | A,2 A,2 D,4 | %38
 G,2 B,2 A,2 G,2 | A,2 A,2 D,4 | G,2 B,2 A,2 G,2 | A,4 D,2 A,2 | A,4 F,2 D,2 | B,4 A,4 | %44
 G,4 F,2 E,2 | x8 | E,4 F,2 G,2 | F,2 D,2 D,4 | E,2 E,E, E,2 F,G, | A,8 ||[M:3/4] x6 | x6 | x6 | %53
 x6 | x6 | x6 | x6 | x6 | x6 | x6 | x6 | x6 | z6 | z6 | z6 | z6 | z6 | z6 | z6 | z6 | B,,4 D,2 | %71
 F,2 F,2 F,2 | G,6 | D,6 | B,2 A,2 G,2 | F,4 F,2 | E,2 F,2 G,2 | A,4 A,2 | B,,2 B,,2 D,2 | %79
 F,4 F,2 | G,4 G,2 | D,4 D,2 | B,2 A,2 G,2 | F,4 F,2 | E,2 F,2 G,2 | A,6 ||[M:4/4] A,4 F,2 D,2 | %87
 B,2 B,B, A,4 | G,4 F,2 E,2 | F,2 F,F, F,4 | A,4 F,2 D,2 | B,,3 D, F,4 | G,4 A,2 B,2 | A,4 D,4 | %94
 G,2 B,2 A,2 G,2 | A,4 D,4 | G,2 B,2 A,2 G,2 | E,3 E, A,4 | B,4 G,4 | !fermata!D,8 |] %100
[K:A] E,16 B,,2 E,2 E,2 | C,16 A,,2 C,2 A,,2 A,,2 G,,4 || A,,16 E,2 A,,2 A,,2 | %103
 F,16 D,2 C,2 E,2 E,2 A,,4 |][K:D][M:3/4] D,6 | D,6 | D,4 D,2 | A,,6 | D,4 D,2 | G,4 G,2 | F,6 | %111
 E,6 | B,,6 | F,4 F,2 | G,6 | D,6 | G,6 | F,2 E,2 D,2 | E,4 A,,2 | D,4 B,,2 | G,4 F,2 | %121
 E,2 E,2 D,2 | A,,6 | D,4 F,2 | B,,6 | B,4 B,2 | A,6 | F,4 !>!E,2 | D,4 B,,2 | E,4 E,2 | A,,6 || %131
 B,,6 | F,4 F,2 | G,6 | D,4 D,2 | G,4 A,2 | D,4 A,2 | D,4 B,,2 | E,4 G,2 | D,6- | !fermata!D,6 |] %141
[K:G][M:4/4] G,4 D,4 | E,4 D,4 | A,,4 B,,2 D,D, | G,,4 G,,4 | B,,2 B,,2 C,2 C,2 | D,4 D,4 :| %147
 G,,4 D,4 | E,4 D,4 | A,,4 B,,2 D,D, | G,,4 G,,4 | C,4 G,,2 G,,2 | D,4 !fermata!G,,4 |] %153
V:5
"^Andante" (D4 | [B,D]4 | [CE]2 [B,D]2) | ([CE]4- | [CE]4 | [DF]2 [CE]2) | ([DF]4 | [CEA]4 | %8
 G2 B2) | (d3 B) | ([CE]4 | [DF]2 [CE]2) | (A3 F | E3 F | E2 D2) | ([B,D]4- | [B,D]4 | %17
 [CE]2 [B,D]2) | ([CE]4- | [CE]4 | [DF]2 [CE]2) | ([DF]4 | [CEA]4 | G2 B2) | [CE]4 | %25
 (E2 !fermata!A2) | [B,DG]4- | [B,DG]4 |][K:D][M:4/4]!f!"^Enerģiski" (A4 F2 D2 | [DFd]4 c4) | %30
 ([GB]4 A2 G2 | A8) | ([EG]4 A2 B2 | A8) | (A4 F2 D2 | [DFd]4) c4 | ([GB]4 A2 G2 | A8) | %38
 ([EG]4 A2 B2 | A8) | ([EG]4 A2 B2) | A6 z2 | z DFG ADFA | [Fd]4 c4 | ([GB]4 A2 G2 | [FA]8) | %46
 (G4 A2 E2 | [FA-]4 A2 B2) | ([B,EG]6 [FA][GB] | [CA]8) ||[M:3/4]!mp!"^Meno mosso" [DB]6 | %51
 (A4 c2) | (F4 B2) | [EFA]6 | (G4 B2) | [CE]6 | [DB]6 | (A4 F2) | D4 E2 | [DF]6 | G6 | A6 | %62
 (F4 B2) | (A4 c2) | F6 | (A4 F2) | E2 A2 B2 | E4 A2 | [EB]6 | c6 |!mf! ([DFd]6 | c2 B2 A2 | B6 | %73
 A6) | G2 A2 B2 | A4 d2 | (B2 c2 d2 | c4)!f! (A2 | [FBdf]6 | [FAcf]6) | [DGBd]6 | [DFAd]4 [FA]2 | %82
 [D-G]4 [DGB]2 | [DAd]6 | B2 c2 d2 | [EAce]6 ||[M:4/4]"^Tempo I" z DFG ADFA | [Fd]4 c4 | %88
 [GB]4 A2 G2 | [FA]8 | (A4 F2 D2 | [DFd]4 c4) | ([GB]4 A2 G2 | A8) | ([EG]4 A2 B2 | A8) | %96
 ([GB]4 [FA]2 [GB]2 | [EGc]4 [EGc]4) | ([DFd]4 [DEGd]4 | !fermata![Ad]8) |] %100
[K:A]"^Rubato, recitando" [EG]16 ([^DF]2 [EG]2) [EG]2 | [EG]16 F2 E2 ([CF]4 [^B,^DG]4) || %102
 [Ec]16 ([GB]2 [Ac]2) [Ac]2 | [CFAc]16 ([B,FB]2 [EA]2) [E-GB]4 [CEc]4 |] %104
[K:D][M:3/4]"^Andante" ([A,DF]6 | [G,B,E]6) | ([A,DF]4 [B,D]2 | [A,CE]6) | ([A,DF]6 | G4 B2 | %110
 [C-FA-]6 | [CGA]6) |!mf! ([DFd]6 | c2 B2 A2 | B6 | A6) | ([D-B]6 | A2 G2 F2 | G6 | [DF]6) | %120
 (B4 A2 | G4 F2 | ([CE]6 | [A,DF]4))!mf! (F2 | [DFB]6 | [DF]4) ([DF]2 | [CFc]6 | %127
 [CFA]4)!f! (!>![CGA]2 | [DFAd]4 [FBd]2 | [GBe]4 [E-GB]2 | [EAc]6) || ([DFBd]6 | c2 B2 A2 | B6) | %134
 ([FA]4 [DF]2 | E6 | [DF]4) A2 | [DFAd]4 [FBd]2 | ([G-B-e]4 [DGBd]2) | [DFAd]6- | %140
 !fermata![DFAd]6 |][K:G][M:4/4]!mf!"^Andante" (B4 A2 B2 | [EG]6 E2 | F4 G2 A2 | B4 d4) | %145
 (d2 B4 A2 | B2 G2 A4) :| (B4 A2 B2 | [B,G]6 [B,E]2 | F4 G2 A2 | B4 d4) | (c4 B2 G2 | %152
 A4 !fermata!G4) |] %153
V:6
!mp! D,4 | [G,,G,]4 | G,4 | [C,G,]4 | [A,,A,]4 | [D,A,]2 [E,G,]2 |!mf! [D,A,-]4 | %7
!<(! [A,,A,]4!<)! | G,4 |!f! F,4 | A,4 | [D,A,]2 [E,G,]2 |!>(! [D,F,]4 | A,4 | G,2!>)! F,2 | %15
!mp! G,4- | [G,,G,]4 | G,4 | [C,G,]4 |"^Edited by Rev. Andris  Solims     14.09.2012" [A,,A,-]4 | %20
 [D,A,]2 [E,G,]2 |!mf! [D,A,-]4 | [A,,A,]4 | G,4 | A,4 | G,2 !fermata!F,2 | z D,E,A, | G,4 |] %28
[K:D][M:4/4] A,4 F,2 D,2 | [B,,B,]3 [D,B,] [F,A,]4 | [G,,G,]4 A,,2 B,,2 | [A,,A,-]4 [D,A,]4 | %32
 [B,,B,]4 [A,,A,]2 [G,,G,]2 | [A,,A,-]4 [D,A,]4 |!f! A,4 F,2 D,2 | [B,,B,]3 [D,B,] [F,A,]4 | %36
 [G,,G,]4 A,,2 B,,2 | [A,,A,-]4 [D,A,]4 | [B,,B,]4 [A,,A,]2 [G,,G,]2 | [A,,A,-]4 [D,A,]4 | %40
 [B,,B,]4 [A,,A,]2 [G,,G,]2 | [A,,A,-]4 [D,A,]2 A,2 | A,4 F,2 D,2 | B,4 A,4 | [G,,G,]4 A,,2 B,,2 | %45
 [D,,D,]4 F,,4 | [E,,E,]4 [F,,F,]2 [G,,G,]2 | [F,,F,-]4 [B,,F,]4 | E,2 D,2 C,2 B,,2 | %49
 E,2 F,2 G,2 A,2 ||[M:3/4] B,4 F,2 | C4 F,2 | B,4 F,2 | C4 F,2 | B,4 E,2 | A,4 G,2 | [B,,F,]4 D,2 | %57
 [F,C]6 | [G,B,]6 | A,6 | [E,B,]6 | A,,2 E,2 A,2 | B,4 B,,2 | [F,C]6 | B,6 | F,6 | G,6 | A,6 | %68
 G,2 A,2 B,2 | A,6 | [B,,B,]6 | A,2 B,2 C2 | B,6 | [D,D]6 | B,2 A,2 G,2 | [F,A,]6 | D6 | C2 D2 E2 | %78
 [B,,B,]2 [A,,A,]2 [G,,G,]2 | [F,,F,]4 C,2 | [G,,G,]2 [A,,A,]2 [B,,B,]2 | [D,A,]6 | %82
 [B,,B,]2 [A,,A,]2 [G,,G,]2 | [F,,F,]6 | [G,,G,]2 [F,,F,]2 [E,,E,]2 | [A,,E,]6 || %86
[M:4/4]!f! A,4 F,2 D,2 | B,4 A,4 | [G,,G,]4 A,,2 B,,2 | [D,,D,]4 F,,4 | z D CB, A,G,F,E, | %91
 [B,,B,]3 [D,B,] [F,A,]4 | [G,,G,]4 [A,,A,]2 [B,,B,]2 | [A,,A,-]4 [D,A,]4 | %94
 [B,,B,]4 [A,,A,]2 [G,,G,]2 | [A,,A,-]4 [D,A,]4 |!<(! [B,,B,]4 [A,,A,]2!<)! [G,,G,]2 | %97
 [E,,E,]4 [A,,A,]4 | [B,,F,]4 [G,,G,]4 | D,8 |][K:A]!mf! [E,,E,]16 B,,2 [E,,E,]2 [E,,E,]2 | %101
 [C,,C,]16 [A,,F,]2 [C,G,]2 [A,,F,]4 [G,,G,]4 || E,16 E,4 E,2 | %103
 [F,,F,]16 [D,,D,]2 [C,,C,]2 [E,,E,-]4 [A,,E,]4 |][K:D][M:3/4]!p! [D,,D,]6- | [D,,D,]6- | %106
 [D,,D,]6 | A,,6 |!<(! D,6!<)! | [G,,G,]6 | [F,,F,]6 | [E,,E,]6 | [B,,F,]6 | A,2 B,2 C2 | B,4 C2 | %115
 [D,D]6 |!mp! [G,,G,]6 | A,6 | B,4 A,2 | [D,A,]4 B,,2 | [G,,G,]4 [F,,F,]2 | [E,,E,]4 [D,,D,]2 | %122
 A,,6 | [D,,D,]4 F,2 | [B,,B,]4 F,2 | B,4 [B,,B,]2 | [A,,A,]4 C,2 | [F,,F,]4 !>![E,,E,]2 | %128
 [D,,D,]4 B,,2 | [E,,E,]4 E,2 | [A,,A,]6 || [B,,F,]6 | A,2 B,2 C2 | B,4 C2 | [D,A,]6 | %135
 [G,,G,]4 [A,,A,]2 | [D,A,]4 A,2 | [D,A,]4 [B,,B,]2 |!<(! [E,,E,]4 G,,2 | D,2 E,2 A,,2!<)! | %140
 !fermata![D,,D,]6 |][K:G][M:4/4] [G,,G,]4 [D,F,]4 | B,6 G,2 | [A,,A,]4 [B,,G,]2 [D,F,]2 | %144
 G,4 B,4 | F,2 B,2 G,2 A,2 | G,2 B,2 F,4 :|!mp! [G,,G,]4 [D,F,]4 | E,6 G,2 | %149
 [A,,A,]4 [B,,G,]2 [D,F,]2 | G,4 B,4 |!p! [C,G,]4 [G,,G,]4 | F,4 G,4 |] %153
V:7
 x4 | x4 | C,2 G,,2 | x4 | x4 | x4 | x4 | x4 | B,,2 G,,2 | B,,3 D, | A,,2 C,2 | x4 | x4 | %13
 A,,2 E,2 | D,4 | x4 | x4 | C,2 G,,2 | x4 | x4 | x4 | x4 | x4 | B,,2 G,,2 | A,,2 C,2 | D,4 | %26
 G,,4- | G,,4 |][K:D][M:4/4] x8 | x8 | x8 | x8 | x8 | x8 | x8 | x8 | x8 | x8 | x8 | x8 | x8 | x8 | %42
 x8 | B,,2 D,2 F,4 | x8 | x8 | x8 | x8 | x8 | A,,8 ||[M:3/4] x6 | x6 | x6 | x6 | x6 | x6 | x6 | %57
 x6 | x6 | D,4 F,2 | x6 | x6 | x6 | x6 | D,4 E,2 | x6 | x6 | x6 | x6 | x6 | x6 | F,6 | G,6 | x6 | %74
 x6 | x6 | B,2 A,2 G,2 | A,6 | x6 | x6 | x6 | x6 | x6 | x6 | x6 | x6 ||[M:4/4] x8 | B,,2 D,2 F,4 | %88
 x8 | x8 | x8 | x8 | x8 | x8 | x8 | x8 | x8 | x8 | x8 | !fermata!D,,8 |][K:A] x22 | x28 || %102
 A,,16 E,,2 A,,2 A,,2 | x28 |][K:D][M:3/4] x6 | x6 | x6 | x6 | x6 | x6 | x6 | x6 | x6 | F,6 | G,6 | %115
 x6 | x6 | F,2 E,2 D,2 | E,4 A,,2 | x6 | x6 | x6 | x6 | x6 | x6 | x6 | x6 | x6 | x6 | x6 | x6 || %131
 x6 | F,6 | G,6 | x6 | x6 | x6 | x6 | x6 | x6 | x6 |][K:G][M:4/4] x8 | E,4 D,4 | x8 | G,8 | %145
 B,,4 C,4 | D,8 :| x8 | E,4 D,4 | x8 | G,8 | x8 | D,4 !fermata!G,,4 |] %153
V:8
 x4 | x4 | x4 | x4 | x4 | x4 | x4 | x4 | D4 | [DF]4 | x4 | x4 | C3 D | C4 | C4 | x4 | x4 | x4 | %18
 x4 | x4 | x4 | x4 | x4 | D4 | x4 | [CE]4 | x4 | x4 |][K:D][M:4/4] x8 | x4 F2 E2 | D8 | %31
 ([CE]4 [DF]4) | D4- D4 | ([CE]4 [DF]4) | x8 | x4 F2 E2 | D8 | ([CE]4 [DF]4) | D4- D4 | %39
 ([CE]4 [DF]4) | D4- D4 | [CE]4 [DF]2 x2 | x8 | D4 F2 E2 | z B,DE F2 E2 | z2 ED C2 D2 | %46
 E2 B,2 D2 B,2 | C2 A,2 [B,DF]4 | x8 | x8 ||[M:3/4] x6 | [EF]6 | D6 | x6 | [DE]6 | x6 | x6 | E6 | %58
 D6- | x6 | (E4 D2 | C6) | D6 | E6 | F6 | C6 | (B,6 | C6) | x6 | E2 F2 G2 | x6 | F4 E2 | (D4 E2 | %73
 F6) | D6- | D6 | (G6 | A4) A2 | x6 | x6 | x6 | x6 | x6 | x6 | [EG]6 | x6 ||[M:4/4] x8 | D4 F2 E2 | %88
 z B,DE F2 E2 | z2 ED C2 D2 | A4 F2 D2 | x4 F2 E2 | D8 | ([CE]4 [DF]4) | D4- D4 | [CE]4 [DF]4 | %96
 [DE]4 D4 | x8 | x8 | [DF]8 |][K:A] B,16 B,4 B,2 | C16 C4 x8 || C16 E4 E2 | x28 |][K:D][M:3/4] x6 | %105
 x6 | x6 | x6 | x6 | [B,D]6 | x6 | x6 | x6 | (F6 | D4 E2 | F6) | x6 | D6- | D4 C2 | x6 | D6 | %121
 (C4 D2) | x6 | x6 | x6 | x6 | x6 | x6 | x6 | x6 | x6 || x6 | F6 | (D4 E2) | x6 | ([B,D]4 C2) | %136
 x6 | x6 | x6 | x6 | x6 |][K:G][M:4/4] (D4 C4) | x8 | (C4 D4 | D8) | (D4 E4) | D4 D4 :| D4 C4 | %148
 x8 | (C4 D4 | D8) | E4 D4- | (D2 C2) B,4 |] %153

